X:1
T:French Suite II Allemande
T:BWV 813
T:J. S. Bach
%%score { ( 1 3 5 ) | ( 2 4 ) }
L:1/8
Q:1/4=72
M:4/4
K:Eb
V:1 treble nm="Harp"
V:3 treble 
V:5 treble 
V:2 bass 
V:4 bass 
V:1
"^Adagio" G/ | G/=A/4=B/4c/d/ ed F/4E/4D/E/G/ c>c- | %2
 c/d/4e/4f/g/ a/g/4f/4g/d/ d/e/4f/4e/4d/4c/ gg- | g/a/4b/4 c'/e/ fa c/d/4e/4d/4c/4B/ ff- | %4
 f/g/4a/4b/d/ eg B/c/4_d/4c/4B/4A/ ee- | e/f/4g/4a aa- a/f/4g/4a aa- | %6
 a/g/4f/4g/e/ fd- d/e/4f/4 g/d/ ec- | c/^f/4g/4 =a/d/ ed B>e =A/c/4=B/4c- | %8
 c/=B/4c/4d- d/c/=A/^F/ G7/2 G/ | G/=A/4=B/4c/d/ ed F/4E/4D/E/G/ c>c- | %10
 c/d/4e/4f/g/ a/g/4f/4g/d/ d/e/4f/4e/4d/4c/ gg- | g/a/4b/4 c'/e/ fa c/d/4e/4d/4c/4B/ ff- | %12
 f/g/4a/4b/d/ eg B/c/4_d/4c/4B/4A/ ee- | e/f/4g/4a aa- a/f/4g/4a aa- | %14
 a/g/4f/4g/e/ fd- d/e/4f/4 g/d/ ec- | c/^f/4g/4 =a/d/ ed B>e =A/c/4=B/4c- | %16
 c/=B/4c/4d- d/c/=A/^F/ G7/2 d/ | d/=B/4c/4d/B/ z/ BB/ z/ c/4B/4c/G/ E/G/4F/4E/4D/4C/ | %18
 z/ =e/4f/4g/e/ z/ ee/- e/f/4e/4f/c/ z2 | _d2- d>d c2- c/f/4e/4d/c/ | %20
 B/_d/4c/4B/A/ G/B/4A/4G/F/ =E/4F/4G/4A/4B- B/=e/4f/4g/4a/4b/ | a>a- a/g=e/ f2 F/A/c/_e/ | %22
 d/4e/4f/4g/4a- a/g/4f/4e/4f/4g/ c/4d/4e/4f/4g- g/f/4e/4d/4e/4f/ | %23
 =B/4c/4d/4e/4f- f/e/4d/4c/4d/4e/- e/d/4c/4B/4c/4d/ A/4G/4A3/2- | %24
 A/=B/4c/4d- d/G/c- c/=A/4_B/4c/^F/ GB- | B/G/4A/4 B/=E/ FA =B,/4C/4D/4_E/4F- F/=B/4c/4d/4e/4f/ | %26
 z/4 a/4g/4^f/4g e>=B c7/2 d/ | d/=B/4c/4d/B/ z/ BB/ z/ c/4B/4c/G/ E/G/4F/4E/4D/4C/ | %28
 z/ =e/4f/4g/e/ z/ ee/- e/f/4e/4f/c/ z2 | _d2- d>d c2- c/f/4e/4d/c/ | %30
 B/_d/4c/4B/A/ G/B/4A/4G/F/ =E/4F/4G/4A/4B- B/=e/4f/4g/4a/4b/ | a>a- a/g=e/ f2 F/A/c/_e/ | %32
 d/4e/4f/4g/4a- a/g/4f/4e/4f/4g/ c/4d/4e/4f/4g- g/f/4e/4d/4e/4f/ | %33
 =B/4c/4d/4e/4f- f/e/4d/4c/4d/4e/- e/d/4c/4B/4c/4d/ A/4G/4A3/2- | %34
 A/=B/4c/4d- d/G/c- c/=A/4_B/4c/^F/ GB- | B/G/4A/4 B/=E/ FA =B,/4C/4D/4_E/4F- F/=B/4c/4d/4e/4f/ | %36
 z/4 a/4g/4^f/4g e>=B c7/2 z/ |] %37
V:2
 z/ | E z z =B, C z z C- | C2- C=B, C2 C_B, | A,G, A,F, B,B,, B,A, | G,F, G,E, A,A,, A,G, | %5
 F,F,, F,E, D,D,, D,B,, | E,G,, A,,B,, E,E,, z E, | D,D,, z ^F, G,C, D,D,, | z4 z2 G,3/2 z/ | %9
 E z z =B, C z z C- | C2- C=B, C2 C_B, | A,G, A,F, B,B,, B,A, | G,F, G,E, A,A,, A,G, | %13
 F,F,, F,E, D,D,, D,B,, | E,G,, A,,B,, E,E,, z E, | D,D,, z ^F, G,C, D,D,, | z4 z2 G,3/2 z/ | %17
 =B, z z D C2 z C, | _B,B,, z B, A,G, F,C- | C B,3- B, A,3 | z4 z z/ _D/ C2- | C z z G, z4 | %22
 B,D, E,G, A,C, D,F, | G,=B,, C,E, F,/A,/4G,/4F,/E,/ D,/F,/4E,/4D,/C,/ | %24
 =B,,G,, C,/D,/E,/C,/ D,=A,, _B,,/D,/G,/F,/ | z4 z z/ A,/ G,2 | z4 z2 C,3/2 z/ | %27
 =B, z z D C2 z C, | _B,B,, z B, A,G, F,C- | C B,3- B, A,3 | z4 z z/ _D/ C2- | C z z G, z4 | %32
 B,D, E,G, A,C, D,F, | G,=B,, C,E, F,/A,/4G,/4F,/E,/ D,/F,/4E,/4D,/C,/ | %34
 =B,,G,, C,/D,/E,/C,/ D,=A,, _B,,/D,/G,/F,/ | z4 z z/ A,/ G,2 | z4 z2 !fermata!C,3/2 z/ |] %37
V:3
 x/ | z2 z/ GF/ z E- E/F/G | A z z2 z2 z/ ed/ | c2- c/cc/ z2 z/ dc/ | B2- B/BB/ z2 z/ cB/ | %5
 A>e- e/dc/ B>B- B/fd/ | B2 z/ cA/ G2 z/ =B/c/G/ | ^F/ z/ z z/ c=A/- A/G/4F/4G- G>F | %8
 G>F E2- E/D/4C/4=B,/4C/4D/- D3/2 z/ | z2 z/ GF/ z E- E/F/G | A z z2 z2 z/ ed/ | %11
 c2- c/cc/ z2 z/ dc/ | B2- B/BB/ z2 z/ cB/ | A>e- e/dc/ B>B- B/fd/ | B2 z/ cA/ G2 z/ =B/c/G/ | %15
 ^F/ z/ z z/ c=A/- A/G/4F/4G- G>F | G>F E2- E/D/4C/4=B,/4C/4D/- D3/2 x/ | z2 GF E2 z2 | %18
 z2 cG F2 A/c/4B/4A/4G/4F/- | F/G/4A/4B/F/ G/B/E- E/F/4G/4A/=E/ F/ z/ z | x8 | %21
 z/4 g/4f/4=e/4f _dB- B/A/4G/4A/4B/4c/ F2 | z z/ f/ B2 z z/ e/ A2 | z z/ d/ G2 A2 F2- | %24
 F>F E>=A ^F z z/ D_D/ | x8 | e>d- d/c/F- F/G/4F/4=E/4F/4G/- G3/2 x/ | z2 GF E2 z2 | %28
 z2 cG F2 A/c/4B/4A/4G/4F/- | F/G/4A/4B/F/ G/B/E- E/F/4G/4A/=E/ F/ z/ z | x8 | %31
 z/4 g/4f/4=e/4f _dB- B/A/4G/4A/4B/4c/ F2 | z z/ f/ B2 z z/ e/ A2 | z z/ d/ G2 A2 F2- | %34
 F>F E>=A ^F z z/ D_D/ | x8 | e>d- d/c/F- F/G/4F/4=E/4F/4G/- !fermata!G3/2 x/ |] %37
V:4
 x/ | CC, z G, A,A,, z E, | F,D,G,G, CC, z2 | x8 | x8 | x8 | x8 | x8 | G,,4- [G,,G,]7/2 x/ | %9
 CC, z G, A,A,, z E, | F,D,G,G, CC, z2 | x8 | x8 | x8 | x8 | x8 | G,,4- G,,7/2 x/ | %17
 G,G,, z G, CC, z2 | x8 | B,,2 E,G, A,,2 _D,F, | G,,G, B,_D CG, =E,C, | F,A,, B,,C, F,,F, A,F, | %22
 x8 | x8 | x8 | =E,G,, A,,/C,/F,/_E,/ D,C, =B,,G,, | C,/D,/E,/F,/ G,G,, C,,7/2 z/ | %27
 G,G,, z G, CC, z2 | x8 | B,,2 E,G, A,,2 _D,F, | G,,G, B,_D CG, =E,C, | F,A,, B,,C, F,,F, A,F, | %32
 x8 | x8 | x8 | =E,G,, A,,/C,/F,/_E,/ D,C, =B,,G,, | C,/D,/E,/F,/ G,G,, C,,7/2 x/ |] %37
V:5
 x/ | x8 | x8 | x8 | x8 | x8 | x8 | x8 | z4 z =B,- B,3/2 z/ | x8 | x8 | x8 | x8 | x8 | x8 | x8 | %16
 z4 z =B,- B,3/2 x/ | x8 | x8 | x8 | x8 | x8 | x8 | x8 | x8 | x8 | z4 z =E- =E3/2 x/ | x8 | x8 | %29
 x8 | x8 | x8 | x8 | x8 | x8 | x8 | z4 z =E- =E3/2 x/ |] %37

